src/components/assets/clipboards.svg

<?xml version="1.0" encoding="UTF-8"?>
<svg enable-background="new 0 0 415.998 415.998" version="1.1" viewBox="0 0 416 416" xml:space="preserve" xmlns="http://www.w3.org/2000/svg">

	
		<circle cx="208.24" cy="48" r="12"/>
	


	
		<path d="m368 95.999c0-17.673-14.326-32-31.999-32h-44.424c-5.926-6.583-13.538-11.62-22.284-14.136-7.367-2.118-13.037-7.788-15.156-15.155-5.765-20.045-24.238-34.708-46.137-34.708-21.898 0-40.37 14.663-46.134 34.706-2.122 7.376-7.806 13.039-15.182 15.164-8.736 2.518-16.341 7.55-22.262 14.129h-44.421c-17.674 0-32 14.327-32 32v288c0 17.673 14.326 32 32 32h256c17.674 0 32-14.327 32-32 0-90.879-1e-3 -177.9-1e-3 -288zm-240-0.257c0.11-14.066 9.614-26.606 23.112-30.496 12.71-3.662 22.477-13.426 26.127-26.116 3.918-13.62 16.566-23.13 30.759-23.13 14.194 0 26.842 9.51 30.758 23.13 3.652 12.698 13.413 22.459 26.111 26.11 13.618 3.917 23.13 16.566 23.13 30.758v16h-160v-16.256zm208 304.26h-256c-8.823 0-16-7.178-16-16v-288c0-8.822 7.177-16 16-16h34.742c-1.73 4.892-2.698 10.143-2.74 15.617v32.383h192v-32c0-5.615-0.992-10.991-2.764-16h34.764c8.822 0 15.999 7.178 15.999 16 0 45.743-1e-3 260.25 2e-3 288-1e-3 8.822-7.178 16-16.001 16z"/>
	


	
		<polygon points="274.51 194.51 178.34 290.67 135.96 248.29 124.64 259.6 178.34 313.3 285.82 205.82"/>
	
















</svg>

<?xml version="1.0" encoding="iso-8859-1"?>
<!-- Generator: Adobe Illustrator 19.0.0, SVG Export Plug-In . SVG Version: 6.00 Build 0)  -->
<svg version="1.1" id="Capa_1" xmlns="http://www.w3.org/2000/svg" xmlns:xlink="http://www.w3.org/1999/xlink" x="0px" y="0px"
	 viewBox="0 0 415.998 415.998" style="enable-background:new 0 0 415.998 415.998;" xml:space="preserve">
<g>
	<g>
		<circle cx="208.239" cy="48" r="12"/>
	</g>
</g>
<g>
	<g>
		<path d="M367.998,95.999c0-17.673-14.326-32-31.999-32h-44.424c-5.926-6.583-13.538-11.62-22.284-14.136
			c-7.367-2.118-13.037-7.788-15.156-15.155C248.37,14.663,229.897,0,207.998,0c-21.898,0-40.37,14.663-46.134,34.706
			c-2.122,7.376-7.806,13.039-15.182,15.164c-8.736,2.518-16.341,7.55-22.262,14.129H79.999c-17.674,0-32,14.327-32,32v287.999
			c0,17.673,14.326,32,32,32c73.466,0,163.758,0,256,0c17.674,0,32-14.327,32-32C367.999,293.119,367.998,206.096,367.998,95.999z
			 M128,95.742c0.11-14.066,9.614-26.606,23.112-30.496c12.71-3.662,22.477-13.426,26.127-26.116
			C181.157,25.51,193.805,16,207.998,16c14.194,0,26.842,9.51,30.758,23.13c3.652,12.698,13.413,22.459,26.111,26.11
			c13.618,3.917,23.13,16.566,23.13,30.758v16H128V95.742z M335.999,399.998c-85.455,0-170.77,0-256,0c-8.823,0-16-7.178-16-16
			V95.999c0-8.822,7.177-16,16-16h34.742c-1.73,4.892-2.698,10.143-2.74,15.617v32.383h191.998v-32c0-5.615-0.992-10.991-2.764-16
			h34.764c8.822,0,15.999,7.178,15.999,16c0,45.743-0.001,260.254,0.002,287.999C351.999,392.82,344.822,399.998,335.999,399.998z"
			/>
	</g>
</g>
<g>
	<g>
		<polygon points="274.51,194.508 178.343,290.674 135.955,248.286 124.642,259.6 178.343,313.302 285.823,205.822 		"/>
	</g>
</g>
<g>
</g>
<g>
</g>
<g>
</g>
<g>
</g>
<g>
</g>
<g>
</g>
<g>
</g>
<g>
</g>
<g>
</g>
<g>
</g>
<g>
</g>
<g>
</g>
<g>
</g>
<g>
</g>
<g>
</g>
</svg>
